X:25
T: The Bonniest Lass in A'The World 
N: HA025
O: Europa, Mitteleuropa, Deutschland
N: Vorschläge
M: 2/2
L: 1/16
K: D
D3E | F4A,4B,4D4 | G2F,2E,2D2B,4
A,2B,2 | D4d4A3Bd2A2 | B8A4
B2c2 | d2c2B2A2B3cd2F2 | G2F2E2D2B,4
A,2B,2 | D4d4A2B2G2A2 | F6E2D4
B3c | d2c2B2A2B3cd2B2 | e2d2c2B2c3de2
c2 | d2c2d2e2f2d2e2f2 | B8A4
d2e2 | f2e2d2B2A2B2d2F2 | G2F2E2D2B,4
A,2B,2 | D4d4A2B2G2A2 | F6E2D4

